logo/nodebots.svg

<?xml version="1.0" encoding="UTF-8" standalone="no"?>
<svg width="256px" height="256px" viewBox="0 0 256 256" version="1.1" xmlns="http://www.w3.org/2000/svg" xmlns:xlink="http://www.w3.org/1999/xlink" preserveAspectRatio="xMidYMid">
	<g>
		<rect fill="#F7DF1E" x="0" y="0" width="256" height="256"></rect>
		<g transform="translate(117.841270, 113.371429)" fill="#2E2E2C">
			<path d="M102.281464,36.8767277 L16.3646051,36.8767277 C7.55061521,36.8767277 0.406348719,44.4387304 0.406348719,53.4347165 L0.406348719,99.1707251 L117.665638,99.1707251 L117.665638,53.4347165 C117.665638,44.4387304 111.096675,36.8767277 102.281464,36.8767277 L102.281464,36.8767277 Z M32.9140438,74.0393722 C27.1133733,74.0393722 22.4120087,69.2402915 22.4120087,63.3211403 C22.4120087,57.4019891 27.1133733,52.601687 32.9140438,52.601687 C38.7147143,52.601687 43.4148574,57.4019891 43.4148574,63.3211403 C43.4148574,69.2402915 38.7147143,74.0393722 32.9140438,74.0393722 L32.9140438,74.0393722 Z M86.6224627,74.0393722 C80.8230136,74.0393722 76.1204276,69.2402915 76.1204276,63.3211403 C76.1204276,57.4019891 80.8230136,52.601687 86.6224627,52.601687 C92.4206902,52.601687 97.1232763,57.4019891 97.1232763,63.3211403 C97.1232763,69.2402915 92.4206902,74.0393722 86.6224627,74.0393722 L86.6224627,74.0393722 Z"></path>
			<path d="M22.5988907,103.376181 L95.1481902,103.376181 C97.2295426,103.376181 98.9139234,105.097205 98.9139234,107.220087 C98.9139234,109.34419 97.2295426,111.065214 95.1481902,111.065214 L22.5988907,111.065214 C20.5187597,111.065214 18.831936,109.34419 18.831936,107.220087 C18.831936,105.098427 20.5187597,103.376181 22.5988907,103.376181 L22.5988907,103.376181 Z"></path>
			<path d="M34.8671438,114.620858 L83.5297489,114.620858 C85.6111013,114.620858 87.2967036,116.343104 87.2967036,118.467207 C87.2967036,120.59131 85.6111013,122.311113 83.5297489,122.311113 L34.8671438,122.311113 C32.7870129,122.311113 31.1001892,120.59131 31.1001892,118.467207 C31.1001892,116.343104 32.7870129,114.620858 34.8671438,114.620858 L34.8671438,114.620858 Z"></path>
			<path d="M67.8450975,8.06270021 C67.8450975,3.73876392 64.5215295,0.233199746 60.2843162,0.233199746 C56.0507673,0.233199746 52.9299602,3.73876392 52.9299602,8.06270021 C52.9299602,10.7511137 54.1501897,13.12195 56.5930915,14.5315043 L56.5930915,27.8538696 C56.5930915,30.1367614 58.0234106,31.9860381 60.2574443,31.9860381 C62.493921,31.9860381 63.9217971,30.1367614 63.9217971,27.8538696 L63.9217971,14.7538084 C66.364699,13.3808976 67.8450975,10.9025736 67.8450975,8.06270021 L67.8450975,8.06270021 Z"></path>
		</g>
	</g>
</svg>

<svg viewBox="0 0 256 256" xmlns="http://www.w3.org/2000/svg"><path fill="#F7DF1E" d="M0 0h256v256H0Z"/><g transform="translate(117.841 113.371)"><g fill="#2E2E2C"><path d="M102.28 36.87H16.36C7.54 36.87.4 44.43.4 53.42v45.73h117.25V53.41c0-9-6.57-16.56-15.39-16.56v0ZM32.91 74.03c-5.81 0-10.51-4.8-10.51-10.72 0-5.92 4.7-10.72 10.5-10.72s10.5 4.8 10.5 10.71c0 5.91-4.71 10.71-10.51 10.71v0Zm53.7 0c-5.8 0-10.51-4.8-10.51-10.72 0-5.92 4.7-10.72 10.5-10.72 5.79 0 10.5 4.8 10.5 10.71 0 5.91-4.71 10.71-10.51 10.71v0Z"/><path d="M22.59 103.37h72.54c2.08 0 3.76 1.72 3.76 3.84s-1.69 3.84-3.77 3.84H22.57c-2.09 0-3.77-1.73-3.77-3.85 0-2.13 1.68-3.85 3.76-3.85v0Z"/><path d="M34.86 114.62h48.66c2.08 0 3.76 1.72 3.76 3.84s-1.69 3.84-3.77 3.84H34.84c-2.09 0-3.77-1.72-3.77-3.85s1.68-3.85 3.76-3.85v0Z"/><path d="M67.84 8.06c0-4.33-3.33-7.83-7.57-7.83s-7.36 3.5-7.36 7.82c0 2.68 1.22 5.05 3.66 6.46v13.32c0 2.28 1.43 4.13 3.66 4.13 2.23 0 3.66-1.85 3.66-4.14V14.71c2.44-1.38 3.92-3.86 3.92-6.7v0Z"/></g></g></svg>
